X:120
T:Dutch Trot,The. WM.120
M:6/8
L:1/8
Q:3/8=127
S:Wm.Mittell’s MS, New Romney,Kent,1799
R:.Trot
O:England
A:Kent
P:AABA
N:Appears ealier in key Cmaj
Z:vmp.Chris Partington
K:D
d2af2a|e2ac2e|d2bg2e|fed cBA|!
d2af2a|d2bg2b|agf edc|d3d3:|!
fgf(e2f)|e2fe3|fgfe2f|g2-^ga3|!
dedd2A|fgff2d|bag fed|”Da Capo”ced cBA|]

